src/svg/uf037-align-center.svg

<!-- Generated by IcoMoon.io -->
<svg version="1.1" xmlns="http://www.w3.org/2000/svg" width="32" height="32" viewBox="0 0 32 32">
<path d="M32 24v2.286c0 0.625-0.518 1.143-1.143 1.143h-29.714c-0.625 0-1.143-0.518-1.143-1.143v-2.286c0-0.625 0.518-1.143 1.143-1.143h29.714c0.625 0 1.143 0.518 1.143 1.143zM25.143 17.143v2.286c0 0.625-0.518 1.143-1.143 1.143h-16c-0.625 0-1.143-0.518-1.143-1.143v-2.286c0-0.625 0.518-1.143 1.143-1.143h16c0.625 0 1.143 0.518 1.143 1.143zM29.714 10.286v2.286c0 0.625-0.518 1.143-1.143 1.143h-25.143c-0.625 0-1.143-0.518-1.143-1.143v-2.286c0-0.625 0.518-1.143 1.143-1.143h25.143c0.625 0 1.143 0.518 1.143 1.143zM22.857 3.429v2.286c0 0.625-0.518 1.143-1.143 1.143h-11.429c-0.625 0-1.143-0.518-1.143-1.143v-2.286c0-0.625 0.518-1.143 1.143-1.143h11.429c0.625 0 1.143 0.518 1.143 1.143z"></path>
</svg>

<svg xmlns="http://www.w3.org/2000/svg" width="32" height="32"><path d="M32 24v2.286c0 .625-.518 1.143-1.143 1.143H1.143A1.151 1.151 0 0 1 0 26.286V24c0-.625.518-1.143 1.143-1.143h29.714c.625 0 1.143.518 1.143 1.143zm-6.857-6.857v2.286c0 .625-.518 1.143-1.143 1.143H8a1.151 1.151 0 0 1-1.143-1.143v-2.286C6.857 16.518 7.375 16 8 16h16c.625 0 1.143.518 1.143 1.143zm4.571-6.857v2.286c0 .625-.518 1.143-1.143 1.143H3.428a1.151 1.151 0 0 1-1.143-1.143v-2.286c0-.625.518-1.143 1.143-1.143h25.143c.625 0 1.143.518 1.143 1.143zm-6.857-6.857v2.286c0 .625-.518 1.143-1.143 1.143H10.285a1.151 1.151 0 0 1-1.143-1.143V3.429c0-.625.518-1.143 1.143-1.143h11.429c.625 0 1.143.518 1.143 1.143z"/></svg>
